X:18996
T:Xiraldilla (CT 164)
R:Xiraldilla
C:Tradicional
S:Música Tradicional Asturiana, (C) Tello & Tito. Asturies, 2001.
S:http://pagina.de/MusTradAst <telloytito@asturies.org>
N:Xiraldilla, transcrita en Sama, ayuntamiento de Llangréu.
O:Sama de Llangréu (Llangréu)
A:Asturies
Z:Cancioneru de Torner 164
M:3/8
L:1/8
Q:3/8=88
W:El sol se llama Lore-re-renzo
W:y la lu-la-ru-na Catali-li-ri-na;
W:Catalina anda de no-no-ro-che
W:y Lore-re-renzo anda de di-di-ri-a.
W:Al son que la repetía
W:y al son que la repitió.
W:Al tibirín, tibirón.
K:G
B|d2d|d3/2d/2B|c3/2B/2A|G3/2F/2G|A3/2A/2A|
A3/2G/2F|G3/2G/2G|GzB|d2d|d3/2c/2B|c3/2B/2A|
G3/2F/2G|A3/2A/2A|A3/2G/2F|G3/2G/2G|GzG|BA/2B/2c/2B/2|
AAG|BA/2B/2c/2B/2|A2A|d2B|c3/2B/2A|G3-|Gz 


